X: 615
T: Padraig O’Keefe’s
B: good tune book
B: tunes
M:6/8
R: jig
Q: 3/8=100
K:Dmajor
V:1 
aff gee|fed B2A|aff gee|fed d2f|
 aff gee|fed B2A|GAB dBA|FEE E3:|
 |:GAB d2B|dBe dBA|GAB dBA|Bee eee|
 GAB d2B|dBe dBA|GAB dBA|FEE E3:|
% abcbook-tune_id 63dce717b3050a74c61c214c
% abcbook-tune_composer_id 
% abcbook-link-0 https://www.youtube.com/watch?v=TfixcQ6ld7s
% abcbook-boost 0
% abcbook-difficulty 0
% abcbook-tags good tune book
% abcbook-tablature 
% abcbook-transpose 
% abcbook-tuning 
% abcbook-lastupdated 1675477014660
% abcbook-soundfonts 
% abcbook-repeats 1


